public/img/icons/play-ico-big.svg

<svg width="73" height="73" viewBox="0 0 73 73" fill="none" xmlns="http://www.w3.org/2000/svg">
<circle cx="36.4381" cy="36.401" r="36.3229" fill="white"/>
<path d="M42.6838 35.7873C42.6838 35.6554 42.5845 35.5235 42.4851 35.4356L33.5429 29.7208C33.3939 29.6329 33.1952 29.5889 32.9964 29.6768C32.8474 29.7648 32.748 29.8966 32.748 30.0725V41.5021C32.748 41.678 32.8474 41.8099 32.9964 41.8978C33.0958 41.9417 33.1455 41.9417 33.2448 41.9417C33.3442 41.9417 33.4436 41.8978 33.5429 41.8538L42.4851 36.139C42.5845 36.0511 42.6838 35.9192 42.6838 35.7873Z" fill="#515151"/>
</svg>

<svg width="73" height="73" fill="none" xmlns="http://www.w3.org/2000/svg"><circle cx="36.438" cy="36.401" r="36.323" fill="#fff"/><path d="M42.684 35.787c0-.132-.1-.264-.199-.351l-8.942-5.715a.591.591 0 0 0-.547-.044c-.149.088-.248.22-.248.396v11.43c0 .175.1.307.248.395.1.044.15.044.249.044a.77.77 0 0 0 .298-.088l8.942-5.715c.1-.088.199-.22.199-.352z" fill="#515151"/></svg>
